uploads/2019/01/11/team-spirit-02.svg

<svg height="41" viewBox="0 0 41 41" width="41" xmlns="http://www.w3.org/2000/svg"><g fill="#04de47" fill-rule="evenodd" transform="translate(3.211268 2.523944)"><path d="m10.2083333 29.52c-.0005623.3974148-.32669214.7194448-.72916663.72h-4.375c-.4024745-.0005552-.72860439-.3225852-.72916667-.72v-6.48c0-.79529-.65291807-1.44-1.45833333-1.44h-.72916667c-.40247449-.0005552-.72860438-.3225852-.72916667-.72v-3.6c-.00414808-2.5121749 1.64364786-4.7362593 4.06965501-5.4929475 2.42600716-.7566881 5.06867266.1291722 6.52674086 2.1878595-1.1839451 1.3045974-1.8410608 2.9933315-1.8463959 4.745088z" opacity=".15"/><path d="m33.5416667 20.88c-.0005623.3974148-.3266922.7194448-.7291667.72h-.7291667c-.8054152 0-1.4583333.64471-1.4583333 1.44v6.48c-.0005623.3974148-.3266922.7194448-.7291667.72h-4.375c-.4024745-.0005552-.7286043-.3225852-.7291666-.72v-10.8c-.0053351-1.7517565-.6624508-3.4404906-1.8463959-4.745088 1.4580682-2.0586873 4.1007337-2.9445476 6.5267409-2.1878595 2.4260071.7566882 4.073803 2.9807726 4.069655 5.4929475z" opacity=".15"/><g fill-rule="nonzero"><path d="m17.5 10.08c2.4162458 0 4.375-1.93412988 4.375-4.32s-1.9587542-4.32-4.375-4.32-4.375 1.93412988-4.375 4.32 1.9587542 4.32 4.375 4.32zm0-7.2c1.6108305 0 2.9166667 1.28941992 2.9166667 2.88s-1.3058362 2.88-2.9166667 2.88-2.9166667-1.28941992-2.9166667-2.88c.0018484-1.58982346 1.3066024-2.87817485 2.9166667-2.88z"/><path d="m27.7083333 8.64c2.4162458 0 4.375-1.93412988 4.375-4.32s-1.9587542-4.32-4.375-4.32c-2.4162457 0-4.375 1.93412988-4.375 4.32s1.9587543 4.32 4.375 4.32zm0-7.2c1.6108306 0 2.9166667 1.28941992 2.9166667 2.88s-1.3058361 2.88-2.9166667 2.88c-1.6108305 0-2.9166666-1.28941992-2.9166666-2.88.0018484-1.58982346 1.3066024-2.87817485 2.9166666-2.88z"/><path d="m7.29166667 8.64c2.41624578 0 4.37500003-1.93412988 4.37500003-4.32s-1.95875425-4.32-4.37500003-4.32-4.375 1.93412988-4.375 4.32 1.95875422 4.32 4.375 4.32zm0-7.2c1.61083052 0 2.91666663 1.28941992 2.91666663 2.88s-1.30583611 2.88-2.91666663 2.88-2.91666667-1.28941992-2.91666667-2.88c.00184839-1.58982346 1.30660239-2.87817485 2.91666667-2.88z"/><path d="m27.7083333 10.08c-2.3014312.0041029-4.4645132 1.0857253-5.8298333 2.915136l.0016042.00144c-2.5799423-1.9692252-6.1812869-1.9692252-8.7612292 0l.0024792-.00216c-1.8674431-2.4971694-5.14858515-3.52661566-8.13327-2.5517835-2.98468485.9748321-4.99698899 3.7331783-4.9880842 6.8373675v3.6c0 1.1929351.97937711 2.16 2.1875 2.16h.72916667v6.48c0 1.1929351.97937711 2.16 2.1875 2.16h4.375c1.20812293 0 2.18750003-.9670649 2.18750003-2.16v-3.732192c.2335499.0851351.4802215.1298547.7291666.132192h.7291667v7.92c0 1.1929351.9793771 2.16 2.1875 2.16h4.375c1.2081229 0 2.1875-.9670649 2.1875-2.16v-7.92h.7291667c.2489451-.0023373.4956167-.0470569.7291666-.132192v3.732192c0 1.1929351.9793771 2.16 2.1875 2.16h4.375c1.2081229 0 2.1875-.9670649 2.1875-2.16v-6.48h.7291667c1.2081229 0 2.1875-.9670649 2.1875-2.16v-3.6c0-1.9095587-.768227-3.7409069-2.1356797-5.0911688-1.3674528-1.3502619-3.2221167-2.1088312-5.155987-2.1088312zm-17.5 19.44c-.0005623.3974148-.32669214.7194448-.72916663.72h-4.375c-.4024745-.0005552-.72860439-.3225852-.72916667-.72v-6.48c0-.79529-.65291807-1.44-1.45833333-1.44h-.72916667c-.40247449-.0005552-.72860438-.3225852-.72916667-.72v-3.6c-.00414808-2.5121749 1.64364786-4.7362593 4.06965501-5.4929475 2.42600716-.7566881 5.06867266.1291722 6.52674086 2.1878595-1.1839451 1.3045974-1.8410608 2.9933315-1.8463959 4.745088zm12.3958334-5.04h-.7291667c-.8054153 0-1.4583333.64471-1.4583333 1.44v7.92c-.0004822.3974477-.3266589.7195239-.7291667.72h-4.375c-.4025078-.0004761-.7286845-.3225523-.7291667-.72v-7.92c0-.79529-.652918-1.44-1.4583333-1.44h-.7291667c-.4025077-.0004761-.7286845-.3225523-.7291666-.72v-5.04c0-3.1811602 2.6116723-5.76 5.8333333-5.76s5.8333333 2.5788398 5.8333333 5.76v5.04c-.0004821.3974477-.3266589.7195239-.7291666.72zm10.9375-3.6c-.0005623.3974148-.3266922.7194448-.7291667.72h-.7291667c-.8054152 0-1.4583333.64471-1.4583333 1.44v6.48c-.0005623.3974148-.3266922.7194448-.7291667.72h-4.375c-.4024745-.0005552-.7286043-.3225852-.7291666-.72v-10.8c-.0053351-1.7517565-.6624508-3.4404906-1.8463959-4.745088 1.4580682-2.0586873 4.1007337-2.9445476 6.5267409-2.1878595 2.4260071.7566882 4.073803 2.9807726 4.069655 5.4929475z"/></g></g></svg>

<?xml version="1.0" encoding="UTF-8"?>
<svg width="41px" height="41px" viewBox="0 0 41 41" version="1.1" xmlns="http://www.w3.org/2000/svg" xmlns:xlink="http://www.w3.org/1999/xlink">
    <!-- Generator: sketchtool 52.4 (67378) - http://www.bohemiancoding.com/sketch -->
    <title>FC95EB8C-D620-4FEB-B241-76F3101C35BD</title>
    <desc>Created with sketchtool.</desc>
    <g id="Page-1" stroke="none" stroke-width="1" fill="none" fill-rule="evenodd">
        <g id="Wunder-Careers-04-Cultures" transform="translate(-584.000000, -1295.000000)" fill="#04DE47">
            <g id="Team-Spirit-Copy" transform="translate(208.000000, 1007.000000)">
                <g id="Enginiering-Copy-6" transform="translate(351.000000, 68.000000)">
                    <g id="Group-18" transform="translate(25.211268, 220.523944)">
                        <g id="group" transform="translate(3.000000, 2.000000)">
                            <path d="M10.2083333,29.52 C10.207771,29.9174148 9.88164116,30.2394448 9.47916667,30.24 L5.10416667,30.24 C4.70169217,30.2394448 4.37556228,29.9174148 4.375,29.52 L4.375,23.04 C4.375,22.24471 3.72208193,21.6 2.91666667,21.6 L2.1875,21.6 C1.78502551,21.5994448 1.45889562,21.2774148 1.45833333,20.88 L1.45833333,17.28 C1.45418525,14.7678251 3.10198119,12.5437407 5.52798834,11.7870525 C7.9539955,11.0303644 10.596661,11.9162247 12.0547292,13.974912 C10.8707841,15.2795094 10.2136684,16.9682435 10.2083333,18.72 L10.2083333,29.52 Z" id="Path" opacity="0.149999991"></path>
                            <path d="M33.5416667,20.88 C33.5411044,21.2774148 33.2149745,21.5994448 32.8125,21.6 L32.0833333,21.6 C31.2779181,21.6 30.625,22.24471 30.625,23.04 L30.625,29.52 C30.6244377,29.9174148 30.2983078,30.2394448 29.8958333,30.24 L25.5208333,30.24 C25.1183588,30.2394448 24.792229,29.9174148 24.7916667,29.52 L24.7916667,18.72 C24.7863316,16.9682435 24.1292159,15.2795094 22.9452708,13.974912 C24.403339,11.9162247 27.0460045,11.0303644 29.4720117,11.7870525 C31.8980188,12.5437407 33.5458147,14.7678251 33.5416667,17.28 L33.5416667,20.88 Z" id="Path" opacity="0.149999991"></path>
                            <path d="M17.5,10.08 C19.9162458,10.08 21.875,8.14587012 21.875,5.76 C21.875,3.37412988 19.9162458,1.44 17.5,1.44 C15.0837542,1.44 13.125,3.37412988 13.125,5.76 C13.125,8.14587012 15.0837542,10.08 17.5,10.08 Z M17.5,2.88 C19.1108305,2.88 20.4166667,4.16941992 20.4166667,5.76 C20.4166667,7.35058008 19.1108305,8.64 17.5,8.64 C15.8891695,8.64 14.5833333,7.35058008 14.5833333,5.76 C14.5851817,4.17017654 15.8899357,2.88182515 17.5,2.88 Z" id="Shape" fill-rule="nonzero"></path>
                            <path d="M27.7083333,8.64 C30.1245791,8.64 32.0833333,6.70587012 32.0833333,4.32 C32.0833333,1.93412988 30.1245791,1.4609241e-16 27.7083333,0 C25.2920876,-1.4609241e-16 23.3333333,1.93412988 23.3333333,4.32 C23.3333333,6.70587012 25.2920876,8.64 27.7083333,8.64 Z M27.7083333,1.44 C29.3191639,1.44 30.625,2.72941992 30.625,4.32 C30.625,5.91058008 29.3191639,7.2 27.7083333,7.2 C26.0975028,7.2 24.7916667,5.91058008 24.7916667,4.32 C24.7935151,2.73017654 26.0982691,1.44182515 27.7083333,1.44 Z" id="Shape" fill-rule="nonzero"></path>
                            <path d="M7.29166667,8.64 C9.70791245,8.64 11.6666667,6.70587012 11.6666667,4.32 C11.6666667,1.93412988 9.70791245,1.4609241e-16 7.29166667,0 C4.87542089,-1.4609241e-16 2.91666667,1.93412988 2.91666667,4.32 C2.91666667,6.70587012 4.87542089,8.64 7.29166667,8.64 Z M7.29166667,1.44 C8.90249719,1.44 10.2083333,2.72941992 10.2083333,4.32 C10.2083333,5.91058008 8.90249719,7.2 7.29166667,7.2 C5.68083615,7.2 4.375,5.91058008 4.375,4.32 C4.37684839,2.73017654 5.68160239,1.44182515 7.29166667,1.44 Z" id="Shape" fill-rule="nonzero"></path>
                            <path d="M27.7083333,10.08 C25.4069021,10.0841029 23.2438201,11.1657253 21.8785,12.995136 L21.8801042,12.996576 C19.3001619,11.0273508 15.6988173,11.0273508 13.118875,12.996576 L13.1213542,12.994416 C11.2539111,10.4972466 7.97276905,9.46780034 4.9880842,10.4426325 C2.00339935,11.4174646 -0.0089047927,14.1758108 -1.29526245e-15,17.28 L-1.29526245e-15,20.88 C-1.14730613e-15,22.0729351 0.97937711,23.04 2.1875,23.04 L2.91666667,23.04 L2.91666667,29.52 C2.91666667,30.7129351 3.89604378,31.68 5.10416667,31.68 L9.47916667,31.68 C10.6872896,31.68 11.6666667,30.7129351 11.6666667,29.52 L11.6666667,25.787808 C11.9002166,25.8729431 12.1468882,25.9176627 12.3958333,25.92 L13.125,25.92 L13.125,33.84 C13.125,35.0329351 14.1043771,36 15.3125,36 L19.6875,36 C20.8956229,36 21.875,35.0329351 21.875,33.84 L21.875,25.92 L22.6041667,25.92 C22.8531118,25.9176627 23.0997834,25.8729431 23.3333333,25.787808 L23.3333333,29.52 C23.3333333,30.7129351 24.3127104,31.68 25.5208333,31.68 L29.8958333,31.68 C31.1039562,31.68 32.0833333,30.7129351 32.0833333,29.52 L32.0833333,23.04 L32.8125,23.04 C34.0206229,23.04 35,22.0729351 35,20.88 L35,17.28 C35,15.3704413 34.231773,13.5390931 32.8643203,12.1888312 C31.4968675,10.8385693 29.6422036,10.08 27.7083333,10.08 Z M10.2083333,29.52 C10.207771,29.9174148 9.88164116,30.2394448 9.47916667,30.24 L5.10416667,30.24 C4.70169217,30.2394448 4.37556228,29.9174148 4.375,29.52 L4.375,23.04 C4.375,22.24471 3.72208193,21.6 2.91666667,21.6 L2.1875,21.6 C1.78502551,21.5994448 1.45889562,21.2774148 1.45833333,20.88 L1.45833333,17.28 C1.45418525,14.7678251 3.10198119,12.5437407 5.52798834,11.7870525 C7.9539955,11.0303644 10.596661,11.9162247 12.0547292,13.974912 C10.8707841,15.2795094 10.2136684,16.9682435 10.2083333,18.72 L10.2083333,29.52 Z M22.6041667,24.48 L21.875,24.48 C21.0695847,24.48 20.4166667,25.12471 20.4166667,25.92 L20.4166667,33.84 C20.4161845,34.2374477 20.0900078,34.5595239 19.6875,34.56 L15.3125,34.56 C14.9099922,34.5595239 14.5838155,34.2374477 14.5833333,33.84 L14.5833333,25.92 C14.5833333,25.12471 13.9304153,24.48 13.125,24.48 L12.3958333,24.48 C11.9933256,24.4795239 11.6671488,24.1574477 11.6666667,23.76 L11.6666667,18.72 C11.6666667,15.5388398 14.278339,12.96 17.5,12.96 C20.721661,12.96 23.3333333,15.5388398 23.3333333,18.72 L23.3333333,23.76 C23.3328512,24.1574477 23.0066744,24.4795239 22.6041667,24.48 Z M33.5416667,20.88 C33.5411044,21.2774148 33.2149745,21.5994448 32.8125,21.6 L32.0833333,21.6 C31.2779181,21.6 30.625,22.24471 30.625,23.04 L30.625,29.52 C30.6244377,29.9174148 30.2983078,30.2394448 29.8958333,30.24 L25.5208333,30.24 C25.1183588,30.2394448 24.792229,29.9174148 24.7916667,29.52 L24.7916667,18.72 C24.7863316,16.9682435 24.1292159,15.2795094 22.9452708,13.974912 C24.403339,11.9162247 27.0460045,11.0303644 29.4720117,11.7870525 C31.8980188,12.5437407 33.5458147,14.7678251 33.5416667,17.28 L33.5416667,20.88 Z" id="Shape" fill-rule="nonzero"></path>
                        </g>
                    </g>
                </g>
            </g>
        </g>
    </g>
</svg>
